assets/icons/ui/micgear.svg

<?xml version="1.0" encoding="UTF-8" standalone="no"?>
<!DOCTYPE svg PUBLIC "-//W3C//DTD SVG 1.1//EN" "http://www.w3.org/Graphics/SVG/1.1/DTD/svg11.dtd">
<svg width="100%" height="100%" viewBox="0 0 48 48" version="1.1" xmlns="http://www.w3.org/2000/svg" xmlns:xlink="http://www.w3.org/1999/xlink" xml:space="preserve" xmlns:serif="http://www.serif.com/" style="fill-rule:evenodd;clip-rule:evenodd;stroke-linejoin:round;stroke-miterlimit:2;">
    <g transform="matrix(0.05,0,0,0.05,-0.9,47.225)">
        <path d="M307,-430.08C282.333,-456.14 270,-487.113 270,-523L270,-769C270,-803.113 282.333,-832.473 307,-857.08C331.667,-881.693 361.873,-894 397.62,-894C433.367,-894 463.367,-881.693 487.62,-857.08C511.873,-832.473 524,-803.113 524,-769L524,-523C524,-487.113 511.873,-456.14 487.62,-430.08C463.367,-404.027 433.367,-391 397.62,-391C361.873,-391 331.667,-404.027 307,-430.08ZM423,-493.99C429.667,-501.983 433,-511.653 433,-523L433,-768.87C433,-778.123 429.537,-786.127 422.61,-792.88C415.677,-799.627 407.31,-803 397.51,-803C387.71,-803 379.34,-799.627 372.4,-792.88C365.467,-786.127 362,-778.123 362,-768.87L362,-523C362,-511.653 365.167,-501.983 371.5,-493.99C377.833,-485.997 386.333,-482 397,-482C407.667,-482 416.333,-485.997 423,-493.99ZM437,-78L357,-78L357,-218.1C279,-226.033 214,-258.837 162,-316.51C110,-374.183 84,-443.013 84,-523L164,-523C164,-459 186.633,-404.667 231.9,-360C277.167,-315.333 332.533,-293 398,-293C404.247,-293 410.807,-293.667 417.68,-295C424.56,-296.333 431,-297.333 437,-298L437,-78ZM674,-35L669,-85C655.18,-88.333 642.56,-93.333 631.14,-100C619.713,-106.667 609.333,-114.667 600,-124L557,-104L515,-171L554,-202C548.667,-214.22 546,-226.777 546,-239.67C546,-252.557 548.667,-265.333 554,-278L515,-309L557,-377L600,-357C610,-365.667 620.5,-373 631.5,-379C642.5,-385 655,-390 669,-394L673.91,-445L750.26,-445L757,-394C769.667,-390 781.667,-385 793,-379C804.333,-373 815,-365.667 825,-357L868,-377L912,-309L871,-278C875,-265.72 877,-253.11 877,-240.17C877,-227.223 875,-214.5 871,-202L912,-171L868,-104L825,-124C815,-114.667 804.287,-106.667 792.86,-100C781.44,-93.333 769.487,-88.333 757,-85L750.35,-35L674,-35ZM780.38,-171.92C799.46,-190.533 809,-213.367 809,-240.42C809,-267.473 799.43,-290.333 780.29,-309C761.15,-327.667 738.12,-337 711.2,-337C684.287,-337 661.527,-327.597 642.92,-308.79C624.307,-289.983 615,-267.15 615,-240.29C615,-213.43 624.237,-190.667 642.71,-172C661.183,-153.333 683.977,-144 711.09,-144C738.197,-144 761.293,-153.307 780.38,-171.92Z" style="fill-rule:nonzero;"/>
    </g>
</svg>

<svg xmlns="http://www.w3.org/2000/svg" height="48px" viewBox="0 -960 960 960" width="48px" fill="#000000"><path d="M307-430.08q-37-39.09-37-92.92v-246q0-51.17 37-88.08Q344-894 397.62-894q53.62 0 90 36.92Q524-820.17 524-769v246q0 53.83-36.38 92.92-36.38 39.08-90 39.08T307-430.08Zm116-63.91q10-11.99 10-29.01v-245.87q0-13.88-10.39-24.01-10.4-10.12-25.1-10.12-14.7 0-25.11 10.12-10.4 10.13-10.4 24.01V-523q0 17.02 9.5 29.01Q381-482 397-482t26-11.99ZM437-78h-80v-140.1Q240-230 162-316.51 84-403.02 84-523h80q0 96 67.9 163T398-293q9.37 0 19.68-2 10.32-2 19.32-3v220Zm-39-566ZM674-35l-5-50q-20.73-5-37.86-15Q614-110 600-124l-43 20-42-67 39-31q-8-18.33-8-37.67 0-19.33 8-38.33l-39-31 42-68 43 20q15-13 31.5-22t37.5-15l4.91-51h76.35l6.74 51q19 6 36 15t32 22l43-20 44 68-41 31q6 18.42 6 37.83 0 19.42-6 38.17l41 31-44 67-43-20q-15 14-32.14 24Q775.73-90 757-85l-6.65 50H674Zm106.38-136.92Q809-199.84 809-240.42T780.29-309q-28.71-28-69.09-28-40.37 0-68.28 28.21Q615-280.58 615-240.29T642.71-172q27.71 28 68.38 28 40.66 0 69.29-27.92Z"/></svg>
